Sources/FrostedUI/Resources/Icons.xcassets/calendar24.imageset/calendar-24.svg

<svg width="24" height="24" viewBox="0 0 24 24" fill="none" xmlns="http://www.w3.org/2000/svg" data-fui-icon="true">
  <path
    d="M16.25 1C16.6642 1 17 1.33579 17 1.75V4H18.6797C20.5133 4 22 5.48673 22 7.32031V18.6797C22 20.5133 20.5133 22 18.6797 22H5.32031C3.48673 22 2 20.5133 2 18.6797V7.32031C2 5.48673 3.48673 4 5.32031 4H7V1.75C7 1.33579 7.33579 1 7.75 1C8.16421 1 8.5 1.33579 8.5 1.75V4H15.5V1.75C15.5 1.33579 15.8358 1 16.25 1ZM20.5 10.4541C20.4215 10.482 20.338 10.5 20.25 10.5H3.75C3.66196 10.5 3.57848 10.482 3.5 10.4541V18.6797C3.5 19.6848 4.31515 20.5 5.32031 20.5H18.6797C19.6848 20.5 20.5 19.6848 20.5 18.6797V10.4541ZM5.32031 5.5C4.31515 5.5 3.5 6.31515 3.5 7.32031V9.04492C3.57839 9.01712 3.66208 9 3.75 9H20.25C20.3379 9 20.4216 9.01712 20.5 9.04492V7.32031C20.5 6.31515 19.6848 5.5 18.6797 5.5H5.32031Z"
    fill="currentColor"
  />
</svg>

<svg xmlns="http://www.w3.org/2000/svg" width="24" height="24" fill="none" data-fui-icon="true" viewBox="0 0 24 24"><path fill="currentColor" d="M16.25 1a.75.75 0 0 1 .75.75V4h1.68A3.32 3.32 0 0 1 22 7.32v11.36A3.32 3.32 0 0 1 18.68 22H5.32A3.32 3.32 0 0 1 2 18.68V7.32A3.32 3.32 0 0 1 5.32 4H7V1.75a.75.75 0 0 1 1.5 0V4h7V1.75a.75.75 0 0 1 .75-.75m4.25 9.454a.7.7 0 0 1-.25.046H3.75a.7.7 0 0 1-.25-.046v8.226a1.82 1.82 0 0 0 1.82 1.82h13.36a1.82 1.82 0 0 0 1.82-1.82zM5.32 5.5A1.82 1.82 0 0 0 3.5 7.32v1.725A.8.8 0 0 1 3.75 9h16.5q.133.002.25.045V7.32a1.82 1.82 0 0 0-1.82-1.82z"/></svg>
